src/icons/main-cloud-providers.svg

<?xml version="1.0" encoding="UTF-8"?>
<svg width="14px" height="9px" viewBox="0 0 14 9" version="1.1" xmlns="http://www.w3.org/2000/svg" xmlns:xlink="http://www.w3.org/1999/xlink">
    <!-- Generator: Sketch 59 (86127) - https://sketch.com -->
    <title>HDL/Icon/Standard/cloud-providers</title>
    <desc>Created with Sketch.</desc>
    <g id="Colors" stroke="none" stroke-width="1" fill="none" fill-rule="evenodd">
        <g id="Main-Icons" transform="translate(-1122.000000, -364.000000)" fill="#4D5969">
            <g id="Cloud-Providers" transform="translate(1100.000000, 352.000000)">
                <g id="HDL/Icon/Standard/cloud-providers" transform="translate(22.000000, 12.000000)">
                    <path d="M8.12,2.39808173e-14 C6.664,2.39808173e-14 5.432,0.868 4.816,2.1 C4.508,1.876 4.144,1.736 3.724,1.736 C2.688,1.736 1.848,2.548 1.792,3.584 C0.756,3.948 0,4.928 0,6.104 C0,7.616 1.204,8.82 2.716,8.82 L11.508,8.82 C12.88,8.82 14,7.7 14,6.328 C14,5.04 13.02,4.032 11.788,3.892 C11.788,3.836 11.816,3.752 11.816,3.696 C11.816,1.652 10.136,2.39808173e-14 8.12,2.39808173e-14 Z M8.12,0.56 C9.856,0.56 11.256,1.96 11.256,3.696 C11.256,3.836 11.256,3.948 11.228,4.088 L11.172,4.396 L11.508,4.396 C12.572,4.396 13.44,5.264 13.44,6.328 C13.44,7.392 12.572,8.26 11.508,8.26 L2.716,8.26 C1.512,8.26 0.56,7.308 0.56,6.104 C0.56,5.124 1.232,4.284 2.128,4.032 L2.352,3.976 L2.352,3.752 C2.352,3.724 2.352,3.696 2.352,3.696 C2.352,2.912 2.968,2.296 3.752,2.296 C4.144,2.296 4.508,2.464 4.76,2.716 L5.068,3.024 L5.208,2.604 C5.628,1.428 6.776,0.56 8.12,0.56 Z" id="Shape-Copy"></path>
                </g>
            </g>
        </g>
    </g>
</svg>

<?xml version="1.0" encoding="utf-8"?>
<!-- Generator: Adobe Illustrator 20.1.0, SVG Export Plug-In . SVG Version: 6.00 Build 0)  -->
<svg version="1.1" id="Layer_1" xmlns="http://www.w3.org/2000/svg" xmlns:xlink="http://www.w3.org/1999/xlink" x="0px" y="0px"
	 viewBox="0 0 14 9" style="enable-background:new 0 0 14 9;" xml:space="preserve">
<style type="text/css">
	.st0{fill:#4D5969;}
</style>
<title>HDL/Icon/Standard/cloud-providers</title>
<desc>Created with Sketch.</desc>
<g id="Colors">
	<g id="Main-Icons" transform="translate(-1122.000000, -364.000000)">
		<g id="Cloud-Providers" transform="translate(1100.000000, 352.000000)">
			<g id="HDL_x2F_Icon_x2F_Standard_x2F_cloud-providers" transform="translate(22.000000, 12.000000)">
				<path id="Shape-Copy" class="st0" d="M8.1,0C6.7,0,5.4,0.9,4.8,2.1C4.5,1.9,4.1,1.7,3.7,1.7c-1,0-1.9,0.8-1.9,1.8
					C0.8,3.9,0,4.9,0,6.1c0,1.5,1.2,2.7,2.7,2.7h8.8c1.4,0,2.5-1.1,2.5-2.5C14,5,13,4,11.8,3.9c0-0.1,0-0.1,0-0.2
					C11.8,1.7,10.1,0,8.1,0z M8.1,0.6c1.7,0,3.1,1.4,3.1,3.1c0,0.1,0,0.3,0,0.4l-0.1,0.3h0.3c1.1,0,1.9,0.9,1.9,1.9
					s-0.9,1.9-1.9,1.9H2.7c-1.2,0-2.2-1-2.2-2.2c0-1,0.7-1.8,1.6-2.1L2.4,4V3.8c0,0,0-0.1,0-0.1c0-0.8,0.6-1.4,1.4-1.4
					c0.4,0,0.8,0.2,1,0.4L5.1,3l0.1-0.4C5.6,1.4,6.8,0.6,8.1,0.6z"/>
			</g>
		</g>
	</g>
</g>
</svg>
